X:1
T:Lesson 3 - Mary Had a Little Lamb
M:C
K:A
L:1/4
vc B A B|c c c2|B B B2|c e e2|c B A B|c c c c|B B c B|A4|]
